X:354
%%etbk:tnset id:166,pos:3,rep:3x,ant:
%%etbk:pldat 2015-03-25T18:47,2014-12-09T17:55,2014-12-03T17:26,2014-12-02T17:39,2014-05-19T19:30,2014-05-14T16:48,2014-04-27T12:44,2014-04-06T15:53,2014-03-22T15:21,2014-03-16T17:34,2014-03-15T16:51,2014-03-09T14:57,2014-02-05T17:26,2013-11-26T16:22,2013-10-04T15:50,2013-09-02T18:17,2013-05-21T15:58,2013-05-18T13:59,2013-05-14T18:23,2013-05-12T18:24,2013-05-06T18:59
T:Drummond Castle
Z: Piano Box Version by Martin Fleischmann
H: Created 2013-02-19 /  Modified 2013-03-24
R:jig
M:6/8
K:Ador
|: "am"!1!A!4!g/!2!e/A !5!a2a | !5!age "G"!4!ggg | "C"!1!c2!2!c !4!edc | "G"!1!B!3!d!5!g !3!d!2!B!1!G|
"am"!1!AAA !5!aAa | !5!age "G"!4!ggg | "em"!2!ege !1!deg |1 !2!e!1!d!2!B "am"A2G:|2 edB "am"!1!A2!2!B||
|: "C"!3!c2!2!c !4!edc | "G"!3!d2d !5!=fed | "C"!2!c2c edc | "G"!1!B!3!d!5!g !3!d!2!B!1!G|
"C"!2!c2!2!c !4!edc | "am"!1!deg !5!a2g | "em"!2!ege deg|1 !2!e!1!d!2!B "am"!1!A2B:|2 edB "am"A2G||


